ix/convert-3d-cube_linear.svg

<svg viewBox="0 0 24 24" fill="none" xmlns="http://www.w3.org/2000/svg" height="1em" width="1em">
  <path d="M22 15C22 18.87 18.87 22 15 22L16.05 20.25" stroke="#292D32" stroke-width="1.5" stroke-linecap="round" stroke-linejoin="round"/>
  <path d="M2 9C2 5.13 5.13 2 9 2L7.95 3.75" stroke="#292D32" stroke-width="1.5" stroke-linecap="round" stroke-linejoin="round"/>
  <path d="M13.7 4.44995L17.6799 6.74994L21.6199 4.45996" stroke="#292D32" stroke-width="1.5" stroke-linecap="round" stroke-linejoin="round"/>
  <path d="M17.6799 10.82V6.73999" stroke="#292D32" stroke-width="1.5" stroke-linecap="round" stroke-linejoin="round"/>
  <path d="M16.74 2.21L14.34 3.53996C13.8 3.83996 13.35 4.59995 13.35 5.21995V7.75999C13.35 8.37999 13.79 9.13998 14.34 9.43998L16.74 10.77C17.25 11.06 18.09 11.06 18.61 10.77L21.01 9.43998C21.55 9.13998 22 8.37999 22 7.75999V5.21995C22 4.59995 21.56 3.83996 21.01 3.53996L18.61 2.21C18.1 1.93 17.26 1.93 16.74 2.21Z" stroke="#292D32" stroke-width="1.5" stroke-linecap="round" stroke-linejoin="round"/>
  <path d="M2.34998 15.45L6.31998 17.7499L10.27 15.46" stroke="#292D32" stroke-width="1.5" stroke-linecap="round" stroke-linejoin="round"/>
  <path d="M6.31995 21.82V17.74" stroke="#292D32" stroke-width="1.5" stroke-linecap="round" stroke-linejoin="round"/>
  <path d="M5.39 13.21L2.99001 14.54C2.45001 14.84 2 15.5999 2 16.2199V18.76C2 19.38 2.44001 20.14 2.99001 20.44L5.39 21.77C5.9 22.06 6.73999 22.06 7.25999 21.77L9.66 20.44C10.2 20.14 10.65 19.38 10.65 18.76V16.2199C10.65 15.5999 10.21 14.84 9.66 14.54L7.25999 13.21C6.73999 12.93 5.9 12.93 5.39 13.21Z" stroke="#292D32" stroke-width="1.5" stroke-linecap="round" stroke-linejoin="round"/>
</svg>

<svg viewBox="0 0 24 24" fill="none" xmlns="http://www.w3.org/2000/svg" height="1em" width="1em">
  <path d="M22 15c0 3.87-3.13 7-7 7l1.05-1.75M2 9c0-3.87 3.13-7 7-7L7.95 3.75m5.75.7 3.98 2.3 3.94-2.29m-3.94 6.36V6.74" stroke="#292D32" stroke-width="1.5" stroke-linecap="round" stroke-linejoin="round"/>
  <path d="m16.74 2.21-2.4 1.33c-.54.3-.99 1.06-.99 1.68v2.54c0 .62.44 1.38.99 1.68l2.4 1.33c.51.29 1.35.29 1.87 0l2.4-1.33c.54-.3.99-1.06.99-1.68V5.22c0-.62-.44-1.38-.99-1.68l-2.4-1.33c-.51-.28-1.35-.28-1.87 0ZM2.35 15.45l3.97 2.3 3.95-2.29m-3.95 6.36v-4.08" stroke="#292D32" stroke-width="1.5" stroke-linecap="round" stroke-linejoin="round"/>
  <path d="m5.39 13.21-2.4 1.33c-.54.3-.99 1.06-.99 1.68v2.54c0 .62.44 1.38.99 1.68l2.4 1.33c.51.29 1.35.29 1.87 0l2.4-1.33c.54-.3.99-1.06.99-1.68v-2.54c0-.62-.44-1.38-.99-1.68l-2.4-1.33c-.52-.28-1.36-.28-1.87 0Z" stroke="#292D32" stroke-width="1.5" stroke-linecap="round" stroke-linejoin="round"/>
</svg>
